fridge-off.svg

<svg fill="currentColor" viewBox="0 0 24 24"><path d="M22.11 21.46 2.39 1.73 1.11 3 5 6.89V9h2.11l1 1H5v9a2 2 0 0 0 2 2v1h2v-1h6v1h2v-1c.58 0 1.1-.25 1.46-.65l2.38 2.38zM10 15H8v-3h2zm9 .8L13.2 10H19zM8.2 5 5.7 2.5c.35-.31.8-.5 1.3-.5h10a2 2 0 0 1 2 2v5h-6.8L10 6.8V5z"/></svg>

<svg  viewBox="0 0 24 24" fill="currentColor"><path  d="M22.11 21.46L2.39 1.73L1.11 3L5 6.89V9H7.11L8.11 10H5V19C5 20.11 5.9 21 7 21V22H9V21H15V22H17V21C17.58 21 18.1 20.75 18.46 20.35L20.84 22.73L22.11 21.46M10 15H8V12H10V15M19 15.8L13.2 10H19V15.8M8.2 5L5.7 2.5C6.05 2.19 6.5 2 7 2H17C18.11 2 19 2.9 19 4V9H12.2L10 6.8V5H8.2Z"/></svg>
